symbols/web/headset_mic/materialsymbolsoutlined/headset_mic_wght500grad200_24px.svg

<svg xmlns="http://www.w3.org/2000/svg" height="24" width="24"><path d="M12 23.85v-2.7h7.05v-.85H14.4v-9.375h4.65v-.4q0-2.925-2.05-4.988-2.05-2.062-5-2.062-2.925 0-4.987 2.062Q4.95 7.6 4.95 10.525v.4H9.6V20.3H4.95q-1.175 0-2-.825t-.825-2v-6.95q0-2.025.775-3.825.775-1.8 2.113-3.138 1.337-1.337 3.15-2.125Q9.975.65 12 .65q2.05 0 3.85.787 1.8.788 3.138 2.125Q20.325 4.9 21.1 6.7q.775 1.8.775 3.825v10.5q0 1.175-.825 2t-2 .825Zm-7.05-6.375h1.825V13.75H4.95v3.725Zm12.275 0h1.825V13.75h-1.825Zm1.825 0h-1.825 1.825Zm-12.275 0H4.95h1.825Z"/></svg>

<svg xmlns="http://www.w3.org/2000/svg" height="24" width="24"><path d="M12 23.85V21.15H19.05Q19.05 21.15 19.05 21.15Q19.05 21.15 19.05 21.15V20.3H14.4V10.925H19.05V10.525Q19.05 7.6 17 5.537Q14.95 3.475 12 3.475Q9.075 3.475 7.013 5.537Q4.95 7.6 4.95 10.525V10.925H9.6V20.3H4.95Q3.775 20.3 2.95 19.475Q2.125 18.65 2.125 17.475V10.525Q2.125 8.5 2.9 6.7Q3.675 4.9 5.013 3.562Q6.35 2.225 8.163 1.437Q9.975 0.65 12 0.65Q14.05 0.65 15.85 1.437Q17.65 2.225 18.988 3.562Q20.325 4.9 21.1 6.7Q21.875 8.5 21.875 10.525V21.025Q21.875 22.2 21.05 23.025Q20.225 23.85 19.05 23.85ZM4.95 17.475H6.775V13.75H4.95V17.475Q4.95 17.475 4.95 17.475Q4.95 17.475 4.95 17.475ZM17.225 17.475H19.05V13.75H17.225ZM19.05 17.475H17.225H19.05ZM6.775 17.475H4.95Q4.95 17.475 4.95 17.475Q4.95 17.475 4.95 17.475H6.775Z"/></svg>
